X: 246
T:Phis Fliuch, An
T:Choice Wife, The
N: page 81
N: heptatonic
R:slip jig
M:9/8
K:Dmix
"D"FGA AFA "C"c3|"G"BAG "D"(4FGAF GED|"D"FGA AFA d2 d|d(3.g.f.e dcA GED::
"D"d^cd fge "C"=c2A|"D"d^cd faf "G"~g3|"D"aba ged "C"c2A|"G"BAG "D"(4FGAF GED::
FGA AFd AFd|AFd AFd "G"GED|"D"FGA AFA "C"c3|"G"BAG "D"(4FGAF GED::
"D"~D3 ~D3 c3|c2B c2A "G"GED|"D"~D3 ~D3 d3|d(3.g.f.e dcA GED::
d^cd fge "C"=c2A|d^cd faf "G"~g3|"D"aba ged c2A|BAG (4FGAF GED:|
